frontend/public/Images/Brand/p2_logo4.svg

<svg width="153" height="116" viewBox="0 0 153 116" fill="none" xmlns="http://www.w3.org/2000/svg">
<g clip-path="url(#clip0)">
<path fill-rule="evenodd" clip-rule="evenodd" d="M37.2532 96.4474C37.2532 104.867 42.1317 111.677 49.0161 114.385C54.7448 116.647 54.6045 115.053 54.6045 108.92C54.6045 107.583 54.1752 106.7 52.9453 105.998C51.7236 105.296 48.463 104.446 48.2979 98.7917C47.8026 82.1173 63.7011 82.1173 63.2141 98.7917C63.049 104.446 59.7884 105.296 58.5584 105.998C57.3368 106.7 56.8993 107.583 56.8993 108.92C56.8993 114.426 56.4535 116.407 61.5384 114.773C68.9428 112.387 74.2505 105.387 74.2505 96.5465C74.2505 85.5678 65.9711 77.3379 55.7519 77.3379H55.6528C45.4335 77.3296 37.2532 85.4605 37.2532 96.4474Z" fill="#727171"/>
<path fill-rule="evenodd" clip-rule="evenodd" d="M77.0903 96.5711C77.0903 105.552 82.5962 112.709 90.174 115.078C94.6562 116.481 94.4746 115.565 94.4746 110.596C94.4746 109.143 94.0124 108.194 92.6834 107.434C91.1728 106.568 89.6044 106.196 89.2494 104.19C88.9935 102.737 90.5784 88.9026 90.628 88.2917C90.6775 87.6809 90.7848 87.1196 90.8756 87.0288C90.9581 86.9462 91.115 86.9462 91.2801 86.9462H91.957V101.194C91.957 101.648 92.3284 102.019 92.7824 102.019C93.2364 102.019 93.6161 101.648 93.6161 101.194V86.9462H94.8874V101.194C94.8874 101.648 95.2588 102.019 95.7128 102.019C96.1668 102.019 96.5465 101.648 96.5465 101.194V86.9462H97.8095V101.194C97.8095 101.648 98.1892 102.019 98.6432 102.019C99.0972 102.019 99.4687 101.648 99.4687 101.194V86.9462H100.146C100.319 86.9462 100.468 86.9462 100.55 87.0288C100.633 87.1196 100.74 87.6809 100.798 88.2917C100.847 88.9026 102.432 102.737 102.176 104.19C101.821 106.196 100.253 106.568 98.7423 107.434C97.4133 108.194 96.951 109.143 96.951 110.596C96.951 116.093 97.2234 116.638 102.284 114.764C109.341 112.139 114.335 105.272 114.335 96.6702C114.335 85.6172 105.998 77.3213 95.7046 77.3213H95.6055C85.3367 77.3295 77.0903 85.5182 77.0903 96.5711Z" fill="#727171"/>
<path d="M1.7251 4.20169C1.7251 2.88095 2.02227 1.9069 2.62485 1.2878C3.21919 0.668703 4.14371 0.363281 5.39842 0.363281H10.863C12.4892 0.363281 13.909 0.619175 15.1389 1.13096C16.3606 1.64275 17.3759 2.36091 18.1766 3.27717C18.9773 4.19344 19.5717 5.25829 19.9514 6.47172C20.3311 7.68516 20.5292 9.01416 20.5292 10.4505C20.5292 11.8868 20.3393 13.2158 19.9514 14.4292C19.5717 15.6426 18.9773 16.7075 18.1766 17.6238C17.3759 18.54 16.3606 19.2499 15.1389 19.77C13.9172 20.2818 12.4892 20.5377 10.863 20.5377H5.39842C4.14371 20.5377 3.22744 20.224 2.62485 19.6131C2.02227 18.994 1.7251 18.0282 1.7251 16.6992V4.20169ZM9.43494 15.4941C11.2097 15.4941 12.4231 15.0813 13.0918 14.2641C13.7521 13.4469 14.0906 12.1757 14.0906 10.4505C14.0906 8.7335 13.7604 7.46228 13.0918 6.63682C12.4314 5.81135 11.2097 5.40687 9.43494 5.40687H8.00689V15.4941H9.43494Z" fill="#727171"/>
<path d="M23.8891 4.20169C23.8891 2.88095 24.1863 1.9069 24.7889 1.2878C25.3832 0.668703 26.3077 0.363281 27.5624 0.363281H37.8065C38.7392 0.363281 39.4409 0.569648 39.9114 0.990635C40.3737 1.41162 40.613 1.98945 40.613 2.71586C40.613 3.44227 40.3819 4.02009 39.9114 4.44108C39.4409 4.86207 38.7392 5.06843 37.8065 5.06843H30.3277V7.89978H36.3206C37.2534 7.89978 37.955 8.10614 38.4173 8.52713C38.8796 8.94812 39.1189 9.51769 39.1189 10.2524C39.1189 10.987 38.8878 11.5566 38.4173 11.9776C37.9468 12.3986 37.2534 12.6049 36.3206 12.6049H30.3277V15.8242H38.1119C39.0447 15.8242 39.7463 16.0389 40.2086 16.4516C40.6708 16.8726 40.9102 17.4504 40.9102 18.1768C40.9102 18.9032 40.6791 19.4811 40.2086 19.902C39.7463 20.323 39.0447 20.5294 38.1119 20.5294H27.5542C26.2995 20.5294 25.375 20.2157 24.7806 19.6049C24.1863 18.9858 23.8809 18.02 23.8809 16.691V4.20169H23.8891Z" fill="#727171"/>
<path d="M57.3039 15.3206C58.1459 15.3206 58.8145 15.5518 59.3181 16.0058C59.8216 16.4598 60.0775 17.1036 60.0775 17.9209C60.0775 18.7463 59.8216 19.3819 59.3181 19.8442C58.8145 20.2982 58.1376 20.5293 57.3039 20.5293H47.7781C46.5234 20.5293 45.6071 20.2156 45.0045 19.6048C44.4019 18.9857 44.1047 18.0199 44.1047 16.6909V3.47521C44.1047 2.39385 44.3936 1.54362 44.9715 0.924521C45.5576 0.305422 46.3417 0 47.3323 0C48.3229 0 49.1071 0.305422 49.6849 0.924521C50.2627 1.54362 50.5516 2.39385 50.5516 3.47521V15.3206H57.3039Z" fill="#727171"/>
<path d="M62.7107 3.47521C62.7107 2.39385 62.9996 1.54362 63.5774 0.924521C64.1553 0.305422 64.9395 0 65.93 0C66.9206 0 67.7048 0.305422 68.2826 0.924521C68.8604 1.54362 69.1493 2.39385 69.1493 3.47521V17.4256C69.1493 18.5069 68.8604 19.3572 68.2826 19.9763C67.7048 20.5954 66.9206 20.9008 65.93 20.9008C64.9395 20.9008 64.1553 20.5954 63.5774 19.9763C62.9996 19.3572 62.7107 18.5069 62.7107 17.4256V3.47521Z" fill="#727171"/>
<path d="M84.5276 2.21225C84.7175 1.44456 85.0972 0.883248 85.675 0.528298C86.2528 0.173348 86.8802 0 87.5488 0C88.3743 0 89.0842 0.255894 89.695 0.767683C90.3059 1.27947 90.603 1.93159 90.603 2.71578C90.603 3.05422 90.57 3.3679 90.504 3.66507C90.4379 3.96223 90.3306 4.34195 90.1821 4.81246L85.5017 18.2841C85.1467 19.3489 84.6762 20.0506 84.0984 20.389C83.5205 20.7274 82.6373 20.8925 81.4651 20.8925C80.2847 20.8925 79.4097 20.7274 78.8319 20.389C78.2541 20.0506 77.7836 19.3489 77.4286 18.2841L72.7647 4.82072C72.6162 4.3502 72.5088 3.97049 72.4428 3.67332C72.3768 3.37615 72.3438 3.05422 72.3438 2.72404C72.3438 1.93984 72.6492 1.28773 73.2518 0.775937C73.8626 0.255894 74.5725 0 75.398 0C76.0749 0 76.694 0.173348 77.2718 0.528298C77.8496 0.883248 78.2376 1.44456 78.4192 2.21225L81.4404 13.81H81.4982L84.5276 2.21225Z" fill="#727171"/>
<path d="M93.8884 4.20169C93.8884 2.88095 94.1856 1.9069 94.7882 1.2878C95.3825 0.668703 96.307 0.363281 97.5618 0.363281H107.814C108.747 0.363281 109.448 0.569648 109.911 0.990635C110.373 1.41162 110.612 1.98945 110.612 2.71586C110.612 3.44227 110.381 4.02009 109.911 4.44108C109.44 4.86207 108.747 5.06843 107.814 5.06843H100.335V7.89978H106.328C107.261 7.89978 107.963 8.10614 108.425 8.52713C108.895 8.94812 109.127 9.51769 109.127 10.2524C109.127 10.987 108.895 11.5566 108.425 11.9776C107.963 12.3986 107.261 12.6049 106.328 12.6049H100.335V15.8242H108.119C109.052 15.8242 109.754 16.0389 110.224 16.4516C110.687 16.8726 110.926 17.4504 110.926 18.1768C110.926 18.9032 110.695 19.4811 110.224 19.902C109.754 20.323 109.06 20.5294 108.119 20.5294H97.5618C96.307 20.5294 95.3908 20.2157 94.7882 19.6049C94.1856 18.9858 93.8884 18.02 93.8884 16.691V4.20169Z" fill="#727171"/>
<path d="M113.749 4.20169C113.749 2.85619 114.063 1.88214 114.69 1.27129C115.318 0.660449 116.316 0.363281 117.703 0.363281H124.844C127.18 0.363281 128.954 0.908088 130.168 1.98945C131.381 3.07081 131.992 4.43282 131.992 6.08376C131.992 7.37148 131.629 8.43633 130.902 9.27831C130.176 10.1203 129.177 10.6568 127.906 10.9045V10.9623C129.004 11.0365 129.871 11.3007 130.498 11.7464C131.125 12.1922 131.505 12.9186 131.629 13.9339L131.852 15.6179C131.943 16.2122 132.017 16.7405 132.058 17.1863C132.108 17.632 132.132 18.053 132.132 18.4492C132.132 19.1756 131.835 19.77 131.249 20.2322C130.663 20.6862 129.994 20.9174 129.243 20.9174C128.253 20.9174 127.444 20.6945 126.808 20.2405C126.173 19.7947 125.801 19.0931 125.685 18.1438L125.38 15.4858C125.289 14.7181 125 14.1816 124.513 13.8596C124.026 13.546 123.374 13.3809 122.557 13.3809H120.039V17.5577C120.039 18.6391 119.767 19.4728 119.23 20.0506C118.686 20.6285 117.91 20.9174 116.903 20.9174C115.895 20.9174 115.12 20.6285 114.575 20.0506C114.03 19.4728 113.766 18.6391 113.766 17.5577V4.20169H113.749ZM123.242 9.16274C124.175 9.16274 124.844 9.0059 125.256 8.70048C125.669 8.3868 125.875 7.89152 125.875 7.19813C125.875 6.50474 125.669 6.00946 125.256 5.70404C124.844 5.39862 124.175 5.24178 123.242 5.24178H120.023V9.16274H123.242Z" fill="#727171"/>
<path d="M145.538 1.96461C146.173 0.660372 147.172 0 148.534 0C149.393 0 150.119 0.305422 150.722 0.908012C151.316 1.51886 151.621 2.22876 151.621 3.05422C151.621 3.3679 151.555 3.69808 151.423 4.03653C151.291 4.37497 151.085 4.7877 150.804 5.26647L146.157 13.3065V17.4256C146.157 18.5069 145.868 19.3572 145.29 19.9763C144.712 20.5954 143.928 20.9008 142.938 20.9008C141.947 20.9008 141.163 20.5954 140.585 19.9763C140.007 19.3572 139.718 18.5069 139.718 17.4256V13.3065L135.071 5.26647C134.79 4.77944 134.584 4.36671 134.452 4.03653C134.32 3.69808 134.254 3.37615 134.254 3.05422C134.254 2.23701 134.551 1.51886 135.153 0.908012C135.748 0.305422 136.482 0 137.341 0C138.703 0 139.702 0.652118 140.337 1.96461L142.946 7.37141L145.538 1.96461Z" fill="#727171"/>
<path d="M1.5106 88.366C2.51767 85.9722 3.90445 83.9663 5.6792 82.3566C7.45395 80.747 9.45983 79.5501 11.6886 78.7659C13.9173 77.9817 16.2534 77.5854 18.705 77.5854C20.7852 77.5854 22.7333 77.8579 24.5658 78.4109C26.3901 78.964 27.9915 79.7234 29.3701 80.6975C30.7486 81.6715 31.8052 82.7694 32.5646 83.9911C33.3158 85.2127 33.6955 86.4757 33.6955 87.7882C33.6955 89.2328 33.1837 90.4214 32.1601 91.3542C31.1366 92.2952 29.8241 92.7658 28.2144 92.7658C27.1413 92.7658 26.3323 92.5842 25.7793 92.2127C25.2262 91.8412 24.5658 91.024 23.7899 89.7528C23.0552 88.5807 22.2545 87.7634 21.4043 87.3177C20.5458 86.8637 19.448 86.6408 18.1107 86.6408C16.2369 86.6408 14.6768 87.5241 13.4386 89.2823C12.2004 91.0405 11.5813 93.4674 11.5813 96.5464C11.5813 99.5924 12.1839 102.011 13.389 103.786C14.5942 105.56 16.369 106.452 18.7216 106.452C19.7947 106.452 20.6944 106.213 21.4126 105.726C22.1307 105.239 23.0635 104.215 24.2026 102.638C25.3418 101.029 26.7533 100.228 28.429 100.228C29.9726 100.228 31.2521 100.707 32.2757 101.664C33.2993 102.622 33.8111 103.835 33.8111 105.313C33.8111 106.823 33.3488 108.21 32.4325 109.481C31.508 110.753 30.2946 111.834 28.784 112.726C27.2734 113.617 25.6307 114.302 23.8559 114.789C22.0812 115.276 20.3725 115.516 18.7298 115.516C16.2121 115.516 13.8431 115.128 11.6143 114.36C9.38554 113.592 7.39617 112.428 5.65444 110.868C3.91271 109.308 2.53418 107.327 1.53537 104.908C0.503534 102.465 0 99.6832 0 96.5381C0 93.4839 0.503534 90.7599 1.5106 88.366Z" fill="#727171"/>
<path d="M140.288 81.2011C141.493 79.8639 142.451 78.9559 143.152 78.4853C143.854 78.0148 144.663 77.7837 145.563 77.7837C147.04 77.7837 148.262 78.3037 149.236 79.3438C150.21 80.3839 150.697 81.49 150.697 82.6622C150.697 83.4299 150.54 84.115 150.218 84.7011C149.896 85.2872 149.318 85.9971 148.485 86.839L143.053 92.8237L151.853 106.551C152.62 107.789 153.008 108.928 153.008 109.969C153.008 111.446 152.414 112.701 151.225 113.741C150.037 114.781 148.666 115.301 147.131 115.301C146.124 115.301 145.232 115.119 144.44 114.748C143.656 114.377 142.954 113.708 142.351 112.734L134.46 100.517L131.191 104.083V109.061C131.191 111 130.671 112.528 129.631 113.634C128.591 114.74 127.188 115.293 125.405 115.293C123.63 115.293 122.218 114.74 121.178 113.634C120.138 112.528 119.618 111 119.618 109.061V84.0242C119.618 82.0844 120.138 80.5573 121.178 79.4511C122.218 78.345 123.622 77.7919 125.405 77.7919C127.179 77.7919 128.591 78.345 129.631 79.4511C130.671 80.5573 131.191 82.0844 131.191 84.0242V91.1645L140.288 81.2011Z" fill="#727171"/>
<path d="M29.4361 61.4147C31.9951 61.7119 33.4974 63.6682 33.4974 66.0786C33.4974 68.687 31.6897 70.792 28.7345 70.792H8.52709C5.57193 70.792 3.76416 68.687 3.76416 66.0786C3.76416 63.6682 5.26651 61.7119 7.82545 61.4147L7.37144 44.212C7.32192 41.7026 8.87379 40.1012 11.8867 40.1012C14.8997 40.1012 16.3525 41.7026 16.402 44.212L16.856 61.3652H20.4138L20.8678 44.212C20.9173 41.7026 22.3701 40.1012 25.3831 40.1012C28.396 40.1012 29.9479 41.7026 29.8984 44.212L29.4361 61.4147ZM9.22874 37.7403C6.27357 37.7403 4.46581 35.5859 4.46581 32.9774C4.46581 30.3689 6.27357 28.2145 9.22874 28.2145H28.0411C30.9963 28.2145 32.804 30.3689 32.804 32.9774C32.804 35.5859 30.9963 37.7403 28.0411 37.7403H9.22874ZM48.5457 43.4608C49.9489 43.4608 52.0043 44.0634 52.0043 48.4301C52.0043 52.8464 49.9489 53.4985 48.5457 53.4985H47.0928V68.6953C47.0928 71.2047 45.0374 72.8061 41.7768 72.8061C38.3677 72.8061 36.5599 71.0974 36.5599 68.6953V30.7734C36.5599 28.264 38.6153 26.6626 41.8759 26.6626C45.2851 26.6626 47.0928 28.264 47.0928 30.7734V43.4608H48.5457Z" fill="#77BE59"/>
<path d="M96.4887 62.0171C99.0476 62.0171 100.748 63.6763 100.748 66.8296C100.748 69.9911 99.0394 71.543 96.4887 71.543H57.8734C55.3145 71.543 53.614 69.8921 53.614 66.7305C53.614 63.569 55.3227 62.0171 57.8734 62.0171H96.4887ZM61.6375 55.2978C58.93 55.9499 57.0232 54.8438 55.8675 52.2849C54.6624 49.5774 55.3145 47.1175 58.0715 46.3168C66.5491 43.8569 71.4606 39.8946 71.4606 31.2685C71.4606 28.561 73.5655 27.1577 77.1315 27.1577C80.7471 27.1577 82.6952 28.561 82.6952 31.2685C82.6952 46.0196 72.0632 52.7884 61.6375 55.2978ZM83.9994 52.0868C81.4404 50.4854 80.2353 48.3226 81.7459 44.7154C83.8508 39.6965 86.4097 41.9088 88.3166 43.0066C90.2234 44.1128 93.6326 45.4665 96.241 46.1187C99.1962 46.8698 99.6997 49.3297 98.346 52.0868C96.7941 55.2483 94.7882 55.9995 91.9239 55.3474C89.0182 54.6952 86.8142 53.845 83.9994 52.0868Z" fill="#77BE59"/>
<path d="M128.434 28.4126C130.894 28.4126 132.85 29.9645 132.85 33.126C132.85 36.2875 130.894 37.7403 128.434 37.7403H108.92C106.46 37.7403 104.504 36.1885 104.504 33.0269C104.504 29.8654 106.46 28.4126 108.92 28.4126H128.434ZM115.549 50.8322V61.0102H128.541C131.703 61.0102 133.403 63.2142 133.403 65.8722C133.403 68.5797 131.695 70.792 128.541 70.792H109.127C106.32 70.792 105.016 69.2401 105.016 66.6812V45.1695C105.016 42.6106 106.32 41.0587 109.127 41.0587H127.733C130.894 41.0587 132.595 43.2627 132.595 45.9207C132.595 48.6282 130.886 50.8405 127.733 50.8405H115.549V50.8322ZM148.947 43.4608C150.35 43.4608 152.406 44.0634 152.406 48.4301C152.406 52.8464 150.35 53.4985 148.947 53.4985H147.395V68.6953C147.395 71.2047 145.34 72.8061 142.079 72.8061C138.67 72.8061 136.862 71.0974 136.862 68.6953V30.7734C136.862 28.264 138.918 26.6626 142.178 26.6626C145.587 26.6626 147.395 28.264 147.395 30.7734V43.4608H148.947Z" fill="#77BE59"/>
</g>
<defs>
<clipPath id="clip0">
<rect width="153" height="115.738" fill="white"/>
</clipPath>
</defs>
</svg>

<svg width="153" height="116" fill="none" xmlns="http://www.w3.org/2000/svg"><g clip-path="url(#clip0)"><path fill-rule="evenodd" clip-rule="evenodd" d="M37.253 96.447c0 8.42 4.879 15.23 11.763 17.938 5.729 2.262 5.589.668 5.589-5.465 0-1.337-.43-2.22-1.66-2.922-1.221-.702-4.482-1.552-4.647-7.206-.495-16.675 15.403-16.675 14.916 0-.165 5.654-3.426 6.504-4.656 7.206-1.221.702-1.659 1.585-1.659 2.922 0 5.506-.446 7.487 4.64 5.853 7.404-2.386 12.712-9.386 12.712-18.227 0-10.978-8.28-19.208-18.5-19.208h-.098c-10.22-.008-18.4 8.123-18.4 19.11zM77.09 96.571c0 8.981 5.506 16.138 13.084 18.507 4.482 1.403 4.3.487 4.3-4.482 0-1.453-.462-2.402-1.79-3.162-1.511-.866-3.08-1.238-3.435-3.244-.255-1.453 1.33-15.287 1.379-15.898.05-.611.157-1.172.248-1.263.082-.083.239-.083.404-.083h.677v14.248c0 .454.371.825.825.825a.835.835 0 00.834-.825V86.946h1.271v14.248c0 .454.372.825.826.825a.835.835 0 00.834-.825V86.946h1.263v14.248c0 .454.38.825.833.825a.828.828 0 00.826-.825V86.946h.677c.173 0 .322 0 .404.083.083.09.19.652.248 1.263.049.61 1.634 14.445 1.378 15.898-.355 2.006-1.923 2.378-3.434 3.244-1.329.76-1.791 1.709-1.791 3.162 0 5.497.272 6.042 5.333 4.168 7.057-2.625 12.051-9.492 12.051-18.094 0-11.053-8.337-19.349-18.63-19.349h-.1c-10.268.008-18.515 8.197-18.515 19.25z" fill="#727171"/><path d="M1.725 4.202c0-1.321.297-2.295.9-2.914.594-.62 1.519-.925 2.773-.925h5.465c1.626 0 3.046.256 4.276.768 1.222.512 2.237 1.23 3.038 2.146a8.784 8.784 0 011.774 3.195c.38 1.213.578 2.542.578 3.978 0 1.437-.19 2.766-.578 3.98a8.785 8.785 0 01-1.774 3.194c-.801.916-1.816 1.626-3.038 2.146-1.222.512-2.65.768-4.276.768H5.398c-1.254 0-2.17-.314-2.773-.925-.603-.619-.9-1.585-.9-2.914V4.202zm7.71 11.292c1.775 0 2.988-.413 3.657-1.23.66-.817.999-2.088.999-3.813 0-1.718-.33-2.989-1-3.814-.66-.826-1.881-1.23-3.656-1.23H8.007v10.087h1.428zM23.89 4.202c0-1.321.296-2.295.899-2.914.594-.62 1.519-.925 2.773-.925h10.244c.933 0 1.635.207 2.105.628.463.42.702.998.702 1.725 0 .726-.231 1.304-.702 1.725-.47.421-1.172.627-2.105.627h-7.478V7.9h5.993c.932 0 1.634.206 2.096.627.463.421.702.99.702 1.725 0 .735-.231 1.305-.702 1.726-.47.42-1.164.627-2.096.627h-5.993v3.22h7.784c.933 0 1.634.214 2.097.627.462.42.701.998.701 1.725 0 .726-.23 1.304-.701 1.725-.463.421-1.164.627-2.097.627H27.554c-1.255 0-2.179-.313-2.773-.924-.595-.62-.9-1.585-.9-2.914V4.201h.008zM57.304 15.32c.842 0 1.51.232 2.014.686.504.454.76 1.098.76 1.915 0 .825-.256 1.46-.76 1.923-.503.454-1.18.685-2.014.685h-9.526c-1.255 0-2.17-.313-2.773-.924-.603-.62-.9-1.585-.9-2.914V3.475c0-1.081.289-1.931.867-2.55.586-.62 1.37-.925 2.36-.925.99 0 1.775.305 2.353.925.578.619.867 1.469.867 2.55v11.846h6.752zM62.71 3.475c0-1.081.29-1.931.867-2.55C64.155.305 64.94 0 65.93 0c.99 0 1.775.305 2.353.925.577.619.866 1.469.866 2.55v13.95c0 1.082-.289 1.932-.866 2.551-.578.62-1.362.925-2.353.925-.99 0-1.775-.306-2.353-.925-.577-.619-.866-1.47-.866-2.55V3.476zM84.528 2.212c.19-.767.57-1.329 1.147-1.684A3.518 3.518 0 0187.549 0c.825 0 1.535.256 2.146.768.61.511.908 1.164.908 1.948 0 .338-.033.652-.099.95a14.36 14.36 0 01-.322 1.146l-4.68 13.472c-.355 1.065-.826 1.767-1.404 2.105-.578.338-1.46.503-2.633.503-1.18 0-2.055-.165-2.633-.503-.578-.338-1.048-1.04-1.403-2.105L72.765 4.821c-.149-.47-.256-.85-.322-1.148a4.407 4.407 0 01-.1-.949c0-.784.306-1.436.909-1.948.61-.52 1.32-.776 2.146-.776.677 0 1.296.173 1.874.528.578.355.966.917 1.147 1.684L81.44 13.81h.058l3.03-11.598zM93.888 4.202c0-1.321.298-2.295.9-2.914.594-.62 1.519-.925 2.774-.925h10.252c.933 0 1.634.207 2.097.628.462.42.701.998.701 1.725 0 .726-.231 1.304-.701 1.725-.471.421-1.164.627-2.097.627h-7.479V7.9h5.993c.933 0 1.635.206 2.097.627.47.421.702.99.702 1.725 0 .735-.232 1.305-.702 1.726-.462.42-1.164.627-2.097.627h-5.993v3.22h7.784c.933 0 1.635.214 2.105.627.463.42.702.998.702 1.725 0 .726-.231 1.304-.702 1.725-.47.421-1.164.627-2.105.627H97.562c-1.255 0-2.171-.313-2.774-.924-.602-.62-.9-1.585-.9-2.914V4.201zM113.749 4.202c0-1.346.314-2.32.941-2.93.628-.612 1.626-.909 3.013-.909h7.141c2.336 0 4.11.545 5.324 1.626 1.213 1.082 1.824 2.444 1.824 4.095 0 1.287-.363 2.352-1.09 3.194-.726.842-1.725 1.379-2.996 1.627v.057c1.098.075 1.965.339 2.592.784.627.446 1.007 1.173 1.131 2.188l.223 1.684c.091.594.165 1.123.206 1.568.05.446.074.867.074 1.263 0 .727-.297 1.321-.883 1.783a3.192 3.192 0 01-2.006.685c-.99 0-1.799-.223-2.435-.677-.635-.445-1.007-1.147-1.123-2.096l-.305-2.658c-.091-.768-.38-1.304-.867-1.626-.487-.314-1.139-.48-1.956-.48h-2.518v4.178c0 1.081-.272 1.915-.809 2.493-.544.578-1.32.866-2.327.866-1.008 0-1.783-.289-2.328-.866-.545-.578-.809-1.412-.809-2.493V4.202h-.017zm9.493 4.96c.933 0 1.602-.156 2.014-.462.413-.313.619-.808.619-1.502 0-.693-.206-1.189-.619-1.494-.412-.305-1.081-.462-2.014-.462h-3.219v3.92h3.219zM145.538 1.965C146.173.66 147.172 0 148.534 0a2.98 2.98 0 012.188.908c.594.61.899 1.32.899 2.146 0 .314-.066.644-.198.983a8.941 8.941 0 01-.619 1.23l-4.647 8.04v4.119c0 1.08-.289 1.931-.867 2.55-.578.62-1.362.925-2.352.925-.991 0-1.775-.306-2.353-.925-.578-.619-.867-1.47-.867-2.55v-4.12l-4.647-8.04a9.982 9.982 0 01-.619-1.23 2.675 2.675 0 01-.198-.982c0-.817.297-1.535.899-2.146A2.967 2.967 0 01137.341 0c1.362 0 2.361.652 2.996 1.965l2.609 5.406 2.592-5.406zM1.51 88.366c1.008-2.394 2.394-4.4 4.17-6.01a17.528 17.528 0 016.009-3.59 20.975 20.975 0 017.016-1.18c2.08 0 4.028.272 5.86.825 1.825.553 3.426 1.312 4.805 2.287 1.379.974 2.435 2.071 3.195 3.293.75 1.222 1.13 2.485 1.13 3.797 0 1.445-.511 2.633-1.535 3.566-1.023.941-2.336 1.412-3.946 1.412-1.073 0-1.882-.182-2.435-.553-.553-.372-1.213-1.189-1.99-2.46-.734-1.172-1.535-1.99-2.385-2.435-.858-.454-1.956-.677-3.293-.677-1.874 0-3.434.883-4.672 2.641-1.239 1.758-1.858 4.185-1.858 7.264 0 3.046.603 5.465 1.808 7.24 1.205 1.774 2.98 2.666 5.333 2.666 1.073 0 1.972-.239 2.69-.726.719-.487 1.652-1.511 2.79-3.088 1.14-1.609 2.551-2.41 4.227-2.41 1.544 0 2.823.479 3.847 1.436 1.023.958 1.535 2.171 1.535 3.649 0 1.51-.462 2.897-1.379 4.168-.924 1.272-2.137 2.353-3.648 3.245a20.129 20.129 0 01-4.928 2.063c-1.775.487-3.484.727-5.126.727-2.518 0-4.887-.388-7.116-1.156a17.284 17.284 0 01-5.96-3.492c-1.741-1.56-3.12-3.541-4.119-5.96C.504 102.465 0 99.683 0 96.538c0-3.054.504-5.778 1.51-8.172zM140.288 81.201c1.205-1.337 2.163-2.245 2.864-2.716.702-.47 1.511-.701 2.411-.701 1.477 0 2.699.52 3.673 1.56.974 1.04 1.461 2.146 1.461 3.318 0 .768-.157 1.453-.479 2.04-.322.585-.9 1.295-1.733 2.137l-5.432 5.985 8.8 13.727c.767 1.238 1.155 2.377 1.155 3.418 0 1.477-.594 2.732-1.783 3.772-1.188 1.04-2.559 1.56-4.094 1.56-1.007 0-1.899-.182-2.691-.553-.784-.371-1.486-1.04-2.089-2.014l-7.891-12.217-3.269 3.566v4.978c0 1.939-.52 3.467-1.56 4.573-1.04 1.106-2.443 1.659-4.226 1.659-1.775 0-3.187-.553-4.227-1.659-1.04-1.106-1.56-2.634-1.56-4.573V84.024c0-1.94.52-3.467 1.56-4.573 1.04-1.106 2.444-1.66 4.227-1.66 1.774 0 3.186.554 4.226 1.66 1.04 1.106 1.56 2.633 1.56 4.573v7.14l9.097-9.963z" fill="#727171"/><path d="M29.436 61.415c2.56.297 4.061 2.253 4.061 4.664 0 2.608-1.807 4.713-4.762 4.713H8.527c-2.955 0-4.763-2.105-4.763-4.713 0-2.41 1.503-4.367 4.061-4.664l-.454-17.203c-.05-2.51 1.503-4.11 4.516-4.11s4.465 1.6 4.515 4.11l.454 17.153h3.558l.454-17.153c.05-2.51 1.502-4.11 4.515-4.11s4.565 1.6 4.515 4.11l-.462 17.203zM9.23 37.74c-2.955 0-4.763-2.154-4.763-4.763 0-2.608 1.808-4.762 4.763-4.762H28.04c2.955 0 4.763 2.154 4.763 4.762 0 2.609-1.808 4.763-4.763 4.763H9.23zm39.317 5.72c1.403 0 3.458.603 3.458 4.97 0 4.416-2.055 5.069-3.458 5.069h-1.453v15.196c0 2.51-2.056 4.111-5.316 4.111-3.41 0-5.217-1.709-5.217-4.11V30.772c0-2.509 2.055-4.11 5.316-4.11 3.41 0 5.217 1.601 5.217 4.11v12.688h1.453zM96.489 62.017c2.559 0 4.259 1.66 4.259 4.813 0 3.161-1.709 4.713-4.26 4.713H57.874c-2.558 0-4.259-1.65-4.259-4.813 0-3.161 1.709-4.713 4.26-4.713h38.615zm-34.852-6.72c-2.707.653-4.614-.453-5.77-3.012-1.205-2.708-.552-5.167 2.205-5.968 8.477-2.46 13.389-6.422 13.389-15.049 0-2.707 2.105-4.11 5.67-4.11 3.616 0 5.564 1.403 5.564 4.11 0 14.752-10.632 21.52-21.057 24.03zM84 52.088c-2.559-1.602-3.764-3.764-2.253-7.372 2.105-5.019 4.664-2.806 6.57-1.708 1.907 1.106 5.317 2.46 7.925 3.112 2.955.75 3.459 3.21 2.105 5.968-1.552 3.161-3.558 3.912-6.422 3.26-2.906-.652-5.11-1.502-7.925-3.26zM128.434 28.413c2.46 0 4.416 1.552 4.416 4.713 0 3.162-1.956 4.614-4.416 4.614H108.92c-2.46 0-4.416-1.552-4.416-4.713 0-3.162 1.956-4.614 4.416-4.614h19.514zm-12.885 22.42V61.01h12.992c3.162 0 4.862 2.204 4.862 4.862 0 2.708-1.708 4.92-4.862 4.92h-19.414c-2.807 0-4.111-1.552-4.111-4.11V45.168c0-2.558 1.304-4.11 4.111-4.11h18.606c3.161 0 4.862 2.204 4.862 4.862 0 2.707-1.709 4.92-4.862 4.92h-12.184v-.009zm33.398-7.372c1.403 0 3.459.602 3.459 4.97 0 4.415-2.056 5.068-3.459 5.068h-1.552v15.196c0 2.51-2.055 4.111-5.316 4.111-3.409 0-5.217-1.709-5.217-4.11V30.772c0-2.509 2.056-4.11 5.316-4.11 3.409 0 5.217 1.601 5.217 4.11v12.688h1.552z" fill="#77BE59"/></g><defs><clipPath id="clip0"><path fill="#fff" d="M0 0h153v115.738H0z"/></clipPath></defs></svg>
